X:1
T:Magnificat
T:Magnificat 
T:Thomas Sailly
C:Thomas Sailly
%%score [ 1 2 3 4 ]
L:1/8
Q:1/4=120
M:2/2
K:F
V:1 treble nm="Soprano" snm="S"
V:2 treble nm="Alto" snm="A"
V:3 treble-8 nm="Tenor" snm="T"
V:4 bass nm="Bass" snm="B"
V:1
"^Source: Litaniae semen Deipare Virgine---Anvers---P.Phalesius---1598.\nEditor: André Vierendeels (18/12/95)""^MAGNIFICAT" A4 A2 A2"^Sexti Toni" | %1
w: A- ni- ma|
 F4 G4 | A8 | G2 F2 G4 | F2 A2 A2 A2 | F4 G4 | A8 | G8 | F2 A2 A2 A2 | F4 G4 | A6 G2- | GF F4 E2 | %12
w: me- a|Do-|* * mi-|num, a- ni- ma|me- a|Do-|mi-|num, a- ni- ma|me- a|Do- *|* * * mi-|
 F8 || z4"^ET EXSULTAVIT SPIRITUS MEUS * IN DEO SALUTARI MEO" c4 | B2 c2 A2 G2- | GA B3 A A2- | %16
w: num.|Qui-|a re- spe- *||
 A2 G2 A4 | z4 z2 F2 | c6 B2 | A4 G4- | G4 A4- | A2 A2 G2 B2- | BA A4 G2 | A4 z2 c2 | B2 A2 c3 c | %25
w: * * xit|hu-|mi- li-|ta- tem|_ an-|* cil- lae su-||ae, ec-|ce e- nim ex|
 c2 B2 A4 | B2 G2 A4 | G2 F3 E C2 | D2 E2 F4- | F2 E2 D4 | C2 c4 A2 | B2 c2 d2 G2 | c4 d2 cB | %33
w: hoc be- a-|tam me di-|cent, be- * *|a- * tam|_ me di-|cent o- mnes|ge- ne- ra- ti-|o- * * *|
 A2 B2 G2 A2- | A2 F2 G2 F2 | DEFG AB A2- | AG F3 E E2 | F8 || z8 | z8 | F6 G2 | A2 F2 B4- | %42
w: * * nes, o-|* mnes ge- ne-|ra- * * * * * ti-|* * o- * *|nes.|||Et mi-|se- ri- cor-|
 B2 AG A2 GF | E2 A4 GF | G2 A4 F2 | G2 B2 A4 | z2 c4 F2 | G2 B4 AG | A4 G2 F2- | F2 ED D2 A2 | %50
w: ||* * di-|a e- ius|a pro-|ge- * * *|* ni- e|_ _ _ _ in|
 G2 F3 E C2 | D6 E2 | F2 ED C2 c2- | c2 F2 G2 A2 | B6 AG | A2 G2 c4 | B2 A4 GF | B2 A3 G F2 | %58
w: pro- ge- * *|* ni-|es _ _ , a|_ pro- ge- ni-|e _ _|_ _ in|pro- ge- * *|* ni- * *|
 E4 z2 c2- | c2 F2 GA B2- | BA A4 G2 | A8 | z4 z2 A2 | A4 F4 | G4 A4 | G4 F4- | F4 z4 | z2 A2 A4 | %68
w: es, in|_ pro- ge- * *|* * * ni-|es,|ti-|men- ti-|bus _|e- um,|_|ti- men-|
 F4 G2 A2 | G2 F3 E E2 | F8 || %71
w: ti- bus e-||um.|
"^4" F8"^FECIT POTENTIAM IN BRACHIO SUO * DISPERSIT SUPERBOS MENTRE CORDIS SUI." | G4 A4- | %73
w: De-|po- *|
 A2 A2 A4 |"^Magnificat" A4 B4- | B2 B2 A4- | A2 GF G4 | A8- | A8 | z4 A4 | A4 A4 | F8 | G4 A4 | %83
w: * su- it|po- ten-|* tes de|_ _ _ se-|de|_|Et|ex- al-|ta-|vit _|
 G6 G2 | F8- | F8 || C8 | D4 E4- | E2 E2 E2 E2 | E4 F4- | F2 E2 D2 d2- | dB c2 F2 A2- | A2 D4 d2- | %93
w: hu- mi-|les.|_|Su-|sce- *|* pit Is- ra-|el pu|_ e- rum su-|* * * um, pu-|* e- *|
 d2 cB c2 F2 | G2 A3 G G2 | A4 z2 c2- | c2 c2 d3 c | A2 c2 F3 G | AB A3 G F2- | F2 E2 F2 A2- | %100
w: * * * rum su-||um, re-|* cor- da- *|||* * tus, re-|
 AB c2 F2 A2- | AG F2 E2 G2- | GF F4 E2 | F8 | z2 d2 d2 d2 | cBAG FE F2- | F2 E2 D2 C2 | %107
w: * * * cor- da-|||tus|mi- se- ri-|cor- * * * * * *|* di- e su-|
 D2 d2 d2 d2 | cBAG FE G2- | GF F4 E2 | F8 ||"^6" z4 F4- | F4 B4 | A2 GF G4 | F4 A4- | A2 F2 G4- | %116
w: ae, mi- se- ri-|cor- * * * * * di-|* * ae- su-|ae.|Glo-|* ri-|a _ _ Pa-|tri- et|_ Fi- li-|
 G2 FE FG A2- | AG c3 BAG | F4 z2 A2 | A2 A2 B2 A2 | GF F3 E E2 | F8 | z2 A2 A2 A2 | B3 A GF F2- | %124
w: ||o et|Spi- ri- tu- i|San- * * * *|cto,|et Spi- ri-|tu- * * * i-|
 F2 E2 F4 | z2 c2 c2 c2 | d3 c BA B2- | B2 AG F4 | z2 A2 A2 A2 | B3 A G2 F2- | F2 E2 F4 | %131
w: * San- cto,|et Spi- ri-|tu- * * * *|* * * i,|et Spi- ri-|tu- * * i|_ San- cto,|
 z2 c2 c2 c2 | d3 c BA B2- | B2 AG F3 G | A8 |] %135
w: et Spi- ri-|tu _ _ _ i-|* * * San- *|cto.|
V:2
 z2 F,2 A,2 A,2 | B,3 A, B,2 C2- | CB,A,G, F,2 C2 | D2 F4 E2 | F2 C2 C2 C2 | D3 C D2 E2 | %6
w: A- ni- ma|me- * * *|* * * * a Do-|* * mi-|num, a- ni- ma|me- * * a|
 A,3 B, CD C2- | C2 B,2 C2 E2 | D2 F3 E D2 | D3 C D2 E2 | F2 F,G, A,B,CB, | D4 C4 | C8 || %13
w: Do- * * * *|* mi- num, a-|ni- ma _ _|me- * * *|a Do- * * * * *|* mi-|num.|
 F4 E2 F2 | D2 C4 B,A, | B,2 D2 C2 D2 | B,4 A,4 | z2 C2 F4- | F2 E2 D4 | C2 F4 E2 | D3 E F4- | %21
w: Qui- a re-|spe- * * *||* xit|hu- mi-|* li- ta-|em an- cil-|lae _ su-|
 F4 D4 | z2 F2 E2 D2 | F3 F F2 E2 | D2 C3 A, A2 | G2 F3 EDC | B,2 C2 F,4 | G,2 B,4 A,2 | %28
w: * ae,|ec- ce e-|nim ex hoc be-|a- * * *||tam me di-|cent o- mnes|
 B,2 C2 D4 | C3 B, A,2 B,2 | G,4 F,2 F2 | D2 E2 F2 G2- | GE A3 G G2- | GF F2 E2 F2 | C2 D2 C4 | %35
w: ge- ne- ra-|ti- * * *|o- nes, o-|mnes ge- ne- ra-|* ti- o- * *|* * * * nes,|o- mnes ge-|
 B,2 A,3 G, C2- | C2 B,2 C4- | C8 || z8 | z8 | z8 | z8 | z8 | z8 | z8 | z8 | z8 | z8 | z8 | z8 | %50
w: ne- ra- ti- o-||nes.|||||||||||||
 z8 | z8 | z8 | z8 | z8 | z8 | z8 | z8 | z8 | z8 | z8 | z8 | z8 | z8 | z8 | z8 | z8 | z8 | z8 | %69
w: |||||||||||||||||||
 z8 | z8 || C8 | D4 E4- | E2 E2 F4 | F4 E4- | F2 F2 F4 | D4 D4 | z2 F4 E2- | E2 D4 CB, | C2 D2 E4 | %80
w: ||De-|po- *|* su- it|po- ten-|* tes de|se- de|et ex-|* al- ta- *|* * ta-|
 D2 F3 E C2 | D4 B,2 C2 | D2 E2 F4 | D4 E4 | D8 | C8 || A,8 | B,4 C4- | C2 C2 C2 C2 | C4 D3 C | %90
w: vit hu- * *|mi- les, et|ex- al- ta-|vit hu-|mi-|les.|Su-|sce- *|* pit Is- ra-|el pu- *|
 A,2 C2 F,2 F2- | FD E2 D2 C2 | D4 z2 D2 | F2 ED E2 D2- | DB, C2 D4 | z2 C4 C2 | E4 F4- | %97
w: * e- rum su-||um, pu-|e- * * rum- su-|* * * um,|re- cor-|da- tus-|
 F2 E2 D2 D2 | C4 D4 | B,4 C2 F2- | F2 E2 D2 C2- | CB, B,2 C4 | z2 C2 C2 C2 | CB,A,G, A,2 B,2- | %104
w: * mi- se- ri-|cor _|di- ae su-||* * * ae,|mi- se- ri-|cor- * * * * di-|
 B,A,B,C DEFD | EDCB, A,2 D2 | D2 E2 F2 E2- | D4 B,4 | C8 | D2 B,2 C4- | C8 || C8 | D4 D4 | C8 | %114
w: |ae _ _ _ , mi-|se- ri- cor- di-|* ae|su-|* * ae|_|Glo-|ri- a|Pa-|
 A,8 | D6 CB, | C2 D3 E F2- | F2 ED E4 | z4 D4 | D4 D4- | D4 B,4 | C4 D3 C | B,2 A,G, F,2 F2- | %123
w: tri|et _ _|_ Fi- li- *|* * * o|et|Spi- ri|_ tu-|i San- *|* * * cto, et|
 FEDC D4 | C6 B,2 | C4 G,2 A,2 | B,4 z2 D2 | D2 C2 D4- | D4 A,4 | D8 | C6 B,2 | A,2 G,F, G,3 A, | %132
w: _ _ _ _ Spi-|ri- tu-|i San- *|cto, et|Spi- ri- tu-|* i|San-|||
 B,4 D4- | D8 | C8 |] %135
w: co, San-||cto.|
V:3
 z8 | z8 | F4 A2 A2 | B3 A B2 c2- | cBAG F4 | z4 z2 c2 | e2 e2 f3 e | d2 d2 c4 | z2 F2 A2 A2 | %9
w: ||A- ni- ma|me- * * *|* * * * a,-|a-|ni- ma me- a|Do- mi- num,|a- ni- ma|
 B3 A B2 c2- | cBAG F2 G2 | A2 B2 G4 | F8 || z8 | z8 | z2 f2 e2 f2 | d4 c2 d2- | dc c4 B2 | %18
w: me- * * *|* * * * * a|Do- * mi-|num.|||Qui- a re-|spe- * *||
 A2 GF G4 | z2 F2 c4- | c2 B2 c2 d2 | c2 A2 B2 d2- | dc A2 B4 | A8 | z4 z2 f2 | e2 d2 f3 f | %26
w: * * * xit|hu- mi-|* li- ta- *|tem an- cil- lae|_ _ _ su-|ae,|ec-|ce e- nim ex|
 f2 e2 d2 cB | c2 d2 c2 F2 | F2 G2 B3 A | GF G3 F F2- | F2 E2 F4 | z4 z2 c2- | c2 A2 B2 c2 | %33
w: hoc be- a- * *|* * tam, be-|a- tam me _|_ _ di- * *|* * cent|o-|* mnes ge- ne-|
 d2 B2 c4 | A2 B4 A2 | B2 d2 c4 | F4 G4 | F8 || F6 G2 | A2 F2 B4- | B2 AG A2 B2 | c2 d3 cdB | %42
w: ra- ti- o-|nes, ge- ne|ra- ti- o-||nes.|Et mi-|se- ri- cor-|* * * di- a|e- * * * *|
 c6 B2 | c4 d4 | z2 c4 d2 | e2 d2 f3 e | d2 cB c2 d2 | B4 z2 c2- | c2 F2 G2 B2 | A4 z2 f2 | %50
w: |* ius,|et mi-|se- ri cor- *|* di- * a e-|ius a|_ pro- ge- ni-|e in|
 e2 d3 c c2- | c2 BA B2 c2 | B4 A4 | z2 f4 c2 | d2 e2 f4- | f2 ed e2 f2 | d2 c2 d4 | z2 c4 F2 | %58
w: pro- ge- * *||ni- es,|a pro-|ge- ni- e|_ _ _ in pro-|ge- ni- es,|a pro-|
 G2 A2 B2 AG | A2 f2 e2 d2- | dccB/A/ B2 B2 | A4 z2 A2 | B3 A B2 c2 | F2 c2 d3 c | d2 e2 dc f2- | %65
w: ge- ni- e _ _|_ in pro- ge-|* * * * * * ni-|es, ti-|men- ti- bus e-|um, ti- men- ti-|bus e- * * *|
 fe e2 f4 | z2 A2 B3 A | B2 c2 F2 c2 | d3 c d2 e2 | d2 c3 B B2 | c8 || A8 | G4 c4- | c2 c2 d4 | %74
w: * * * um,|ti- men- ti-|bus e- um, ti-|men- ti- bus e-||um.|De-|po- *|* su- it|
 c4 d4- | d2 c2 c4 | B3 A B4 | A8 | z2 f4 e2- | e2 d4 c2 | d4 c2 A2 | B3 c d2 c2- | c2 B2 A2 c2- | %83
w: po- ten-|* tes de|se- * *|de|et ex-|* al- ta-|vit hu- mi-|les _ , et-|_ ex- al- ta-|
 cB B2 c4 | A2 B4 AG | A8 || z4 F4- | F4 G4 | A6 A2 | A2 A2 A4- | A4 B4- | B2 A2 A4- | A2 GF G4 | %93
w: _ _ _ _|vit hu mi- *|les.|Su-|* sce-|* pit|Is- ra- el|_ pu|_ e- rum|_ _ _ su-|
 A8 | z8 | A4 A4 | A8 | A8- | A8 | z4 A4 | A2 A2 A4 | F4 G4 | A4 G4 | F8- | F8 | z4 z2 A2 | %106
w: um,||re- cor-|da-|tus|_|mi-|se- ri- cor-|di- ae|_ su-|ae,|_|mi-|
 A2 A2 A4 | F4 G4 | A6 GA | BAGF G4 | F8 || F8 | B3 c de f2- | f2 ed e4 | d6 cB | A2 B3 AGF | %116
w: se- ri- cor-|di- ae|_ su- *||ae|Glo-|ri- * * * *||a _ _|_ Pa- * * *|
 G2 A4 F2 | c4 c3 B | AG B4 AG | F2 D2 G2 F2 | B3 A G4 | F4 z2 d2 | d2 d2 f3 e | dc B4 A2 | %124
w: * tri et|Fi- li- *||* o, et Fi-|li- * *|o, et|Spi- ri- tu- *|* * * i|
 G2 A4 F2 | GFED E4 | F8 | z2 A2 A2 A2 | B2 AG F4- | F4 B3 A | GF G3 F F2- | F2 ED E4 | F8- | F8- | %134
w: San- * *||cto,|et Spi- ri|tu _ _ i|_ San- *|||cto.|_|
 F8 |] %135
w: |
V:4
 z8 | z8 | z8 | z8 | F,4 A,2 A,2 | B,3 A, B,2 C2- | CB,A,G, F,4 | G,4 z2 C,2 | D,3 E, F,4 | %9
w: ||||A- ni- ma|me- * * *||a, a-|ni- ma me-|
 B,,4 z2 C,2 | F,3 F, F,2 E,2 | D,2 B,,2 C,4 | F,8 || z8 | z8 | z8 | z4 F,4 | E,2 F,2 D,4 | %18
w: a, a-|ni- ma me- a|Do- * mi-|num.||||Qui-|a re- spe-|
 C,4 z4 | z4 z2 C,2 | G,3 G, F,2 D,2 | F,4 G,4- | G,2 F,2 G,4 | D,4 z4 | z8 | z8 | z4 z2 F,2 | %27
w: xit|hu-|mi- li- ta- tem|an- cil-|* lae su-|ae,|||ec-|
 E,2 D,2 F,3 E, | D,2 C,2 B,,4 | C,4 D,2 B,,2 | C,4 z4 | z8 | %32
w: ce e- nim ex|hoc be- a-|tam me di-|cent||
 z8"^QUIA FECIT MIHI MAGNA QUI POTENS EST * ET SANCTUM NOMEN EIUS." | z4 z2 F,2- | %34
w: |o-|
 F,2 D,2 E,2 F,2 | G,2 D,2 F,3 E, | D,4 C,4 | F,8 || z8 | z8 | z8 | z8 | F,6 G,2 | A,2 F,2 B,4- | %44
w: * mnes ge- ne-|ra- ti- o- *||nes.|||||Et mi-|se- ri- cor-|
 B,2 A,G, A,2 B,2 | G,4 F,2 D,2- | D,E,F,G, A,2 B,2 | G,4 F,4- | F,4 z4 | z2 C4 F,2 | G,2 B,2 A,4 | %51
w: * * * * di-|a e- *||* ius|_|a pro-|ge- ni- e|
 z2 G,4 C,2 | D,2 E,2 F,3 G, | A,2 B,4 A,2 | G,4 F,4 | z2 C4 F,2 | G,2 A,2 B,3 A, | %57
w: in pro-|ge- * * *|* * ni-|es ,|in pro-|ge- * * *|
 G,2 F,3 E, D,2 | C,4 B,,2 F,2- | F,E, D,2 C,2 B,,2 | F,4 G,4 | z2 D,2 F,2 F,2 | G,6 F,E, | %63
w: * ni- * *|es, in pro-|* * * ge- ni-|es ,|ti- men- ti-|bus _ _|
 D,2 A,2 B,3 A, | B,2 C2 F,4 | z2 C,2 D,3 C, | D,2 F,2 G,4- | G,2 F,E, D,2 A,2 | B,3 A, B,2 C2 | %69
w: , ti- men- ti|bus e- um,|ti- men- ti-|bus e- *|* * * um, ti-|men- ti- bus e-|
 B,2 A,2 G,4 | F,8 || F,8 | B,4 A,4- | A,2 D,2 D,4 | F,4 B,,4- | B,,2 F,2 F,4 | G,8 | D,6 C,B,, | %78
w: |um.|De-|po- *|* su- it|po- ten|_ tes de|se-||
 C,2 D,2 A,,4 | A,4 A,2 A,2"^ESURIENTES IMPLEVIT BONIS * ET DIVITES DISPERSIT INANES" | D,4 F,4 | %81
w: * * de|Et ex- al-|ta- *|
 B,,2 B,4 A,2 | G,4 F,4 | G,4 C,4 | D,2 B,,3 C, D,E, | F,8 || F,8 | D,4 C,4 | A,,6 A,,2 | %89
w: vit hu- mi-|les, hu-||* * * mi- *|les.-|Su-|sce- pit|Is- ra-|
 A,,4 D,4- | D,2 C,2 B,,3 C, | D,2 C,2 D,2 A,,2 | B,,8 | A,,4 z2 D,2 | G,2 F,2 B,3 A,/G,/ | F,8 | %96
w: el pu-|* e- rum _|_ su- * *||um, pu-|e- rum su- * *|um,|
 z4 D,4- | D,2 C,2 D,3 E, | F,4 D,4 | G,4 F,3 E, | D,2 C,2 D,2 A,,2 | D,4 C,4 | A,,3 B,, C,4 | %103
w: re-|* cor- da- *|* tus|mi- se _|_ ri- cor- di-|ae su-|* * ae,|
 z2 D,2 D,2 D,2 | %104
w: mi- se- ri-|
"^SICUT LOCUTUS ET AD PATRES NOSTROS * ABRAHAM ET SEMINI EIUS IN SAECULA." D,4 B,,4 | C,4 D,4- | %106
w: cor- di-|ae _|
 D,2 C,2 D,2 A,,2 | B,,8 | F,6 E,2 | D,4 C,4 | F,8 || z8 | B,,8 | C,8 | D,8 | D,4 _E,4- | %116
w: _ su- * *|ae,|su- *||ae.||Glo-|ri|_|a Pa-|
 E,2 D,2 D,4 | C,4 C,4 | D,8 | z8 | z8 | z4 D,4 | D,4 D,4 | B,,8 | C,4 D,4 | C,8 | B,,8 | z4 D,4 | %128
w: * tri et|Fi- li|o|||et|Spi- ri-|tu|i _|San-|cto|et|
 D,4 D,4 | %129
w: Spi- ri-|
"^Notes: Original keys: UT 1ST, Ut 3rd, Ut 3rd, Fa 4rth\n            Note values have been halved\n             Editorial accidentals above the staff" B,,8"^SICUT ERAT IN PRINCIPIO ET NUNC ET SEMPER * ET IN SAECULA SAECULORUM. AMEN" | %130
w: tu-|
 C,4 D,4 | C,8 | B,,8- | B,,8 | F,8 |] %135
w: i _|San-|cto.|_||

